assets/svg/icon_2famicrosoft.svg

<svg width="24" height="24" viewBox="0 0 24 24" fill="none" xmlns="http://www.w3.org/2000/svg">
<path fill-rule="evenodd" clip-rule="evenodd" d="M17.5844 6.75877C17.5901 6.67299 17.5901 6.59293 17.5901 6.50715C17.5901 3.4705 15.1283 1.01144 12.1067 1C9.068 1 6.61189 3.46478 6.61189 6.50143C6.61189 6.58721 6.61189 6.67299 6.61761 6.75877C7.28018 6.6158 7.97132 6.50143 8.68531 6.40993C8.731 4.56278 10.2446 3.08162 12.101 3.08162C13.9574 3.08162 15.4653 4.56278 15.5167 6.40993C16.2307 6.50143 16.9218 6.6158 17.5844 6.75877ZM20.3433 8.52014C20.3433 8.52014 21.8226 18.9168 12.1239 23H12.101C2.40224 18.9168 3.88162 8.52014 3.88162 8.52014C6.14352 7.67377 8.99946 7.17052 12.1124 7.17052C15.2254 7.17052 18.0813 7.67377 20.3433 8.52014ZM14.7749 16.8008C14.792 16.6864 14.7977 16.5721 14.7977 16.452C14.7977 15.2396 13.9981 14.2102 12.89 13.8785C13.6325 13.5697 14.158 12.8377 14.158 11.9799C14.158 10.8476 13.2384 9.92688 12.1074 9.92688C10.9765 9.92688 10.0569 10.8419 10.0569 11.9799C10.0569 12.8377 10.5824 13.5697 11.3249 13.8785C10.2225 14.2159 9.42285 15.2396 9.42285 16.452C9.42285 16.5721 9.42856 16.6864 9.4457 16.8008H14.7749Z" fill="#0078D7"/>
</svg>

<svg xmlns="http://www.w3.org/2000/svg" width="24" height="24" fill="none"><path fill="#0078D7" fill-rule="evenodd" d="M17.584 6.759c.006-.086.006-.166.006-.252A5.51 5.51 0 0 0 12.107 1a5.497 5.497 0 0 0-5.49 5.759 25 25 0 0 1 2.068-.35 3.416 3.416 0 0 1 6.832 0 25 25 0 0 1 2.067.35m2.76 1.761s1.479 10.397-8.22 14.48H12.1c-9.699-4.083-8.22-14.48-8.22-14.48C6.145 7.674 9 7.17 12.113 7.17s5.97.504 8.231 1.35m-5.57 8.28q.025-.17.024-.348c0-1.212-.8-2.242-1.908-2.574a2.054 2.054 0 0 0-.783-3.952 2.05 2.05 0 0 0-2.05 2.054c0 .858.525 1.59 1.268 1.899a2.69 2.69 0 0 0-1.88 2.922z" clip-rule="evenodd"/></svg>
